img/check.svg

<svg width="26" height="24" viewBox="0 0 26 24" fill="none" xmlns="http://www.w3.org/2000/svg">
<g id="Frame">
<path id="Vector" fill-rule="evenodd" clip-rule="evenodd" d="M4 2.66667C3.64638 2.66667 3.30724 2.80714 3.05719 3.05719C2.80714 3.30724 2.66667 3.64638 2.66667 4V20C2.66667 20.3536 2.80714 20.6928 3.05719 20.9428C3.30724 21.1929 3.64638 21.3333 4 21.3333H20C20.3536 21.3333 20.6928 21.1929 20.9428 20.9428C21.1929 20.6928 21.3333 20.3536 21.3333 20V12C21.3333 11.6464 21.4738 11.3072 21.7239 11.0572C21.9739 10.8071 22.313 10.6667 22.6667 10.6667C23.0203 10.6667 23.3594 10.8071 23.6095 11.0572C23.8595 11.3072 24 11.6464 24 12V20C24 21.0609 23.5786 22.0783 22.8284 22.8284C22.0783 23.5786 21.0609 24 20 24H4C2.93913 24 1.92172 23.5786 1.17157 22.8284C0.421427 22.0783 0 21.0609 0 20V4C0 2.93913 0.421427 1.92172 1.17157 1.17157C1.92172 0.421427 2.93913 0 4 0H17.3333C17.687 0 18.0261 0.140476 18.2761 0.390524C18.5262 0.640573 18.6667 0.979711 18.6667 1.33333C18.6667 1.68696 18.5262 2.02609 18.2761 2.27614C18.0261 2.52619 17.687 2.66667 17.3333 2.66667H4Z" fill="black"/>
<path id="Vector_2" d="M23.4901 1.42514C23.3274 1.49502 23.1803 1.5966 23.0573 1.72395L12 12.7813L8.94265 9.72395C8.81966 9.5966 8.67253 9.49502 8.50986 9.42514C8.34719 9.35526 8.17223 9.31848 7.99519 9.31695C7.81815 9.31541 7.64258 9.34914 7.47871 9.41618C7.31485 9.48323 7.16598 9.58223 7.04079 9.70742C6.9156 9.83261 6.8166 9.98148 6.74956 10.1453C6.68252 10.3092 6.64878 10.4848 6.65032 10.6618C6.65186 10.8389 6.68864 11.0138 6.75852 11.1765C6.8284 11.3392 6.92997 11.4863 7.05732 11.6093L11.0573 15.6093C11.3074 15.8592 11.6464 15.9997 12 15.9997C12.3535 15.9997 12.6926 15.8592 12.9427 15.6093L24.9427 3.60928C25.07 3.48628 25.1716 3.33916 25.2415 3.17648C25.3113 3.01381 25.3481 2.83885 25.3497 2.66181C25.3512 2.48477 25.3175 2.3092 25.2504 2.14534C25.1834 1.98148 25.0844 1.83261 24.9592 1.70742C24.834 1.58223 24.6851 1.48322 24.5213 1.41618C24.3574 1.34914 24.1818 1.31541 24.0048 1.31694C23.8277 1.31848 23.6528 1.35527 23.4901 1.42514Z" fill="#E30613"/>
</g>
</svg>

<svg xmlns="http://www.w3.org/2000/svg" width="26" height="24" fill="none"><path fill="#000" fill-rule="evenodd" d="M4 2.667A1.333 1.333 0 0 0 2.667 4v16A1.333 1.333 0 0 0 4 21.333h16A1.333 1.333 0 0 0 21.333 20v-8A1.333 1.333 0 1 1 24 12v8a4 4 0 0 1-4 4H4a4 4 0 0 1-4-4V4a4 4 0 0 1 4-4h13.333a1.333 1.333 0 1 1 0 2.667H4Z" clip-rule="evenodd"/><path fill="#E30613" d="M23.49 1.425c-.163.07-.31.172-.433.299L12 12.781 8.943 9.724a1.333 1.333 0 1 0-1.886 1.885l4 4a1.334 1.334 0 0 0 1.886 0l12-12a1.334 1.334 0 0 0-1.453-2.184Z"/></svg>
